X:1
T:Le voulez vous
T:Le voulez vous
T:Jean de Castro
T:Source : Livre de chansons à  3 parties---Paris---A.le Roy & R.Ballard---1575. Editor : André Vierendeels (20.09/15).
T:Notes : Original clefs : G2, C1, C3 This chanson is the "responce" to the chanson "Veux tu ton mal" (de Castro)
C:Jean de Castro
%%score [ 1 2 3 ]
L:1/8
Q:1/4=80
M:2/2
K:C
V:1 treble nm="Superius 1" snm="S 1"
V:2 treble nm="Superius 2" snm="S 2"
V:3 treble-8 nm="Tenor" snm="T"
V:1
 z8 | z8 | d8 | c4 A4 | G4 d4- | d2 c4 B2 | c4 e4 | d4 B4 | d4 z2 d2 | ^c2 d3 c/B/ c2 | %10
w: ||Le|vou- lez|vous, le|_ vou- les|vous, le|vou- lez|vous, le|vou- lez _ _ _|
 d2 d2 d2 d2 | c2 B2 A4 | B4 z2 d2- | d2 c4 e2- | e2 dc B4 | A8 | z4 B4 | c4 d4 | e4 f4- | %19
w: vous, j'en suis tres|bien con- ten-|te, ve-|* nez à|_ _ _ _|moy,|faic-|tes vo-|tre plai-|
 f2 e2 d4- | d2 ^cB c4 | d2 A2 B2 B2 | c4 z2 d2 | e2 e2 g4 | z2 g2 f4- | f4 e4 | d4 d4 | c4 e4 | %28
w: ||sir, des- pe- chez|vous, des-|pe- chez vous,|puis- qu'a-|* vons|le loy-|sir, j'ay-|
 d4 e4 | f4 z2 e2 | d2 c2 c4- | c2 BA B4 | c4 z2 d2 | e4 g4 | g2 d2 e2 c2 | d2 e2 e2 dc | %36
w: me ce-|lui, j'ay-|me ce- luy,|_ _ _ _|* j'ay-|me ce-|luy où lon- gue|n'est l'at- ten- * *|
 B2 A2 B4 | ^c8 | z8 | z4 A4 | d4 ^c4 | d4 f4 | e4 d4 | e2 c2 f4- | f2 e2 d4- | d2 ^cB c4 | %46
w: |te,||j'ay-|me ce-|luy où|lon- que|n'est l'at- ten-|||
 !fermata!d8 |] %47
w: te.|
V:2
 z4 A4- | A2 G4 ^F2 | G4 G4 | A4 c4 | B4 z2 G2 | A4 F4 | G4 c4 | B4 G4 | A4 z2 G2 | A4 E4 | %10
w: Le|_ vou- lez|vous, le|vou- lez|vous, le|vou- lez|vous, le|vou- lez|vous, le|vou- lez|
 G2 D2 F3 G | A2 G2 ^F4 | G4 z2 G2 | A2 B2 c2 A2 | B2 A4 ^G2 | A4 z2 ^F2 | G4 ^G4 | A2 A4 B2- | %18
w: vous, j'en suis tres|bien con- ten-|te, ve-||* nez à|moy, ve-|nez à|moy, faic- tes|
 B2 c2 A4 | F4 G4 | z2 E2 E2 E2 | ^F2 F2 G2 G2 | C2 c2 c2 B2 | c4 c4 | B4 A4- | A4 G2 A2 | %26
w: _ vo- tre|plai- sir,|des- pe- chez|vous, des- pe- chez|vous, des- pe- chez|vous, puis-|qu'a- vons|_ le _|
"^b" B2 A4 G2 | A4 c4 | B4 c4 | d4 G4 | F8- | F4 D4 | C2 c2 B2 B2 | c4 z2 G2 | c2 B4 A2- | %35
w: _ _ loy-|sir, j'ay-|me ce-|luy, j'ay-|me|_ ce-|luy, j'ay- me ce-|luy où|lon- gue n'est|
 A2 G2 A2 ^F2 |"^#" G2 A3 G/F/ G2 | A2 E2 A4 | F4 E4 | z4 F4 | G4 A4 | B4 c4 | c4 A4 | z4 A4 | %44
w: _ l'at- ten- *||te, j'ay- me|ce- luy,|où-|lon- gue|n'est l'at-|ten- te,|où|
 F2 F2 G2 G2 | E8 | !fermata!^F8 |] %47
w: lon- gue n'est l'at-|ten-|te.|
V:3
 d8 | c4 A4 | G8 | z8 | z4 g4 | f4 d4 | c8 | z4 e4 | d4 B4 | A4 A4 | G4 d4 | f2 g2 d4 | G4 g4 | %13
w: Le|vou- lez|vous,||me|vou- lez|vous,|le|vou- lez|vous, j'en|suis tres|bien con- ten-|te, ve-|
 f4 a4 | e8 | z4 d4 | c4 e4 | A2 f4 g2- | g2 c2 d4- | d4 G4 | A2 A2 A2 A2 | d4 z2 G2 | A2 F2 G4 | %23
w: nez à|moy,|ve-|nez à|moy, faic- tes|_ vo- tre|_ plai-|sir, des- pe- chez|vous, des|pe- chez vous,|
 z2 c2 c2 c2 | G4 d4 | A4 c4 | d4 _B4 | A8 | z4 A4 | d4 c4 | F8 | z4 G4 | A4 G4 | c8 | z2 g4 f2- | %35
w: des- pe- chez|vous puis-|qu'a- vons|le loy-|sir,|j'ay-|me ce-|luy,|j'ay-|me ce-|luy|où lon-|
 f2 e2 c2 d2 | e8 | A4 z2 A2 | d4 c4 | F8 | z4 A4 | G4 F4 | c4 d4 | A2 A2 d4- | d4 G4 | A8 | %46
w: * gue n'est l'at-|ten-|te, j'ay-|me ce-|luy,|j'ay-|me ce-|luy où|lon- gue n'est|_ l'at-|ten-|
 !fermata!d8 |] %47
w: te.|

